svg/device/flashlight_line.svg

<?xml version="1.0" encoding="UTF-8"?>
<svg width="24px" height="24px" viewBox="0 0 24 24" version="1.1" xmlns="http://www.w3.org/2000/svg" xmlns:xlink="http://www.w3.org/1999/xlink">
    <title>flashlight_line</title>
    <g id="页面-1" stroke="none" stroke-width="1" fill="none" fill-rule="evenodd">
        <g id="Device" transform="translate(-384.000000, 0.000000)" fill-rule="nonzero">
            <g id="flashlight_line" transform="translate(384.000000, 0.000000)">
                 <path d="M24,0 L24,24 L0,24 L0,0 L24,0 Z M12.5934901,23.257841 L12.5819402,23.2595131 L12.5108777,23.2950439 L12.4918791,23.2987469 L12.4918791,23.2987469 L12.4767152,23.2950439 L12.4056548,23.2595131 C12.3958229,23.2563662 12.3870493,23.2590235 12.3821421,23.2649074 L12.3780323,23.275831 L12.360941,23.7031097 L12.3658947,23.7234994 L12.3769048,23.7357139 L12.4804777,23.8096931 L12.4953491,23.8136134 L12.4953491,23.8136134 L12.5071152,23.8096931 L12.6106902,23.7357139 L12.6232938,23.7196733 L12.6232938,23.7196733 L12.6266527,23.7031097 L12.609561,23.275831 C12.6075724,23.2657013 12.6010112,23.2592993 12.5934901,23.257841 L12.5934901,23.257841 Z M12.8583906,23.1452862 L12.8445485,23.1473072 L12.6598443,23.2396597 L12.6498822,23.2499052 L12.6498822,23.2499052 L12.6471943,23.2611114 L12.6650943,23.6906389 L12.6699349,23.7034178 L12.6699349,23.7034178 L12.678386,23.7104931 L12.8793402,23.8032389 C12.8914285,23.8068999 12.9022333,23.8029875 12.9078286,23.7952264 L12.9118235,23.7811639 L12.8776777,23.1665331 C12.8752882,23.1545897 12.8674102,23.1470016 12.8583906,23.1452862 L12.8583906,23.1452862 Z M12.1430473,23.1473072 C12.1332178,23.1423925 12.1221763,23.1452606 12.1156365,23.1525954 L12.1099173,23.1665331 L12.0757714,23.7811639 C12.0751323,23.7926639 12.0828099,23.8018602 12.0926481,23.8045676 L12.108256,23.8032389 L12.3092106,23.7104931 L12.3186497,23.7024347 L12.3186497,23.7024347 L12.3225043,23.6906389 L12.340401,23.2611114 L12.337245,23.2485176 L12.337245,23.2485176 L12.3277531,23.2396597 L12.1430473,23.1473072 Z" id="MingCute" fill-rule="nonzero"></path>
                <path d="M18.9,2 C19.5075,2 20,2.49248 20,3.1 L20,5 C20,7.79374 18.3638,10.2031 16,11.3261 L16,20 C16,21.1046 15.1046,22 14,22 L10,22 C8.89543,22 8,21.1046 8,20 L8,11.3261 C5.63619,10.2031 4,7.79374 4,5 L4,3.1 C4,2.49249 4.49249,2 5.1,2 L18.9,2 Z M17.584,7 L6.41604,7 C6.95961,8.24426 7.99501,9.22514 9.27781,9.69578 C9.70384,9.85209 10,10.2595 10,10.7293 L10,20 L14,20 L14,10.7293 C14,10.2595 14.2962,9.85208 14.7222,9.69578 C16.005,9.22514 17.0404,8.24426 17.584,7 Z M12,11 C12.5523,11 13,11.4477 13,12 L13,14 C13,14.5523 12.5523,15 12,15 C11.4477,15 11,14.5523 11,14 L11,12 C11,11.4477 11.4477,11 12,11 Z M18,4 L6,4 L6,5 L18,5 L18,4 Z" id="形状" fill="#09244B"></path>
            </g>
        </g>
    </g>
</svg>

<svg xmlns="http://www.w3.org/2000/svg" width="24" height="24"><g fill="none" fill-rule="nonzero"><path d="M24 0v24H0V0h24ZM12.593 23.258l-.011.002-.071.035-.02.004-.014-.004-.071-.035c-.01-.004-.019-.001-.024.005l-.004.01-.017.428.005.02.01.013.104.074.015.004.012-.004.104-.074.012-.016.004-.017-.017-.427c-.002-.01-.009-.017-.017-.018Zm.265-.113-.013.002-.185.093-.01.01-.003.011.018.43.005.012.008.007.201.093c.012.004.023 0 .029-.008l.004-.014-.034-.614c-.003-.012-.01-.02-.02-.022Zm-.715.002a.023.023 0 0 0-.027.006l-.006.014-.034.614c0 .012.007.02.017.024l.015-.002.201-.093.01-.008.004-.011.017-.43-.003-.012-.01-.01-.184-.092Z"/><path fill="#09244B" d="M18.9 2A1.1 1.1 0 0 1 20 3.1V5a7 7 0 0 1-4 6.326V20a2 2 0 0 1-2 2h-4a2 2 0 0 1-2-2v-8.674A7 7 0 0 1 4 5V3.1A1.1 1.1 0 0 1 5.1 2h13.8Zm-1.316 5H6.416a5.016 5.016 0 0 0 2.862 2.696c.426.156.722.563.722 1.033V20h4v-9.27c0-.47.296-.878.722-1.034A5.016 5.016 0 0 0 17.584 7ZM12 11a1 1 0 0 1 1 1v2a1 1 0 1 1-2 0v-2a1 1 0 0 1 1-1Zm6-7H6v1h12V4Z"/></g></svg>
